packages/tokens/icons/voiceAssistant/size32Px.svg

<svg viewBox="0 0 32 32" fill="none" xmlns="http://www.w3.org/2000/svg" width="1em" height="1em"><rect x="10.5" y="10.5" width="11" height="19" rx="1.5" stroke="currentColor"/><path d="M13.5 10.5V12C13.5 12.2761 13.7239 12.5 14 12.5H18C18.2761 12.5 18.5 12.2761 18.5 12V10.5" stroke="currentColor"/><line x1="14.5" y1="26.5" x2="17.5" y2="26.5" stroke="currentColor" stroke-linecap="round"/><path d="M11 5.5C11.5714 4.3 13.2857 2.5 16.1429 2.5C19 2.5 20.7143 4.3 21.2857 5.5" stroke="currentColor" stroke-linecap="round" stroke-linejoin="round"/><path d="M12.7143 6.5C13.2857 5.25 14.7143 4.5 16.1429 4.5C17.5714 4.5 19 5.25 19.5714 6.5" stroke="currentColor" stroke-linecap="round" stroke-linejoin="round"/><path d="M14.4286 7.5C14.7171 6.91137 15.3761 6.5 16.1429 6.5C16.9096 6.5 17.5686 6.91137 17.8572 7.5" stroke="currentColor" stroke-linecap="round" stroke-linejoin="round"/></svg>

<svg xmlns="http://www.w3.org/2000/svg" fill="none" viewBox="0 0 32 32" width="1em" height="1em"><rect width="11" height="19" x="10.5" y="10.5" stroke="currentColor" rx="1.5"/><path stroke="currentColor" d="M13.5 10.5V12a.5.5 0 0 0 .5.5h4a.5.5 0 0 0 .5-.5v-1.5"/><path stroke="currentColor" stroke-linecap="round" d="M14.5 26.5h3"/><path stroke="currentColor" stroke-linecap="round" stroke-linejoin="round" d="M11 5.5c.571-1.2 2.286-3 5.143-3 2.857 0 4.571 1.8 5.143 3"/><path stroke="currentColor" stroke-linecap="round" stroke-linejoin="round" d="M12.714 6.5c.572-1.25 2-2 3.429-2 1.428 0 2.857.75 3.428 2m-5.142 1c.288-.589.947-1 1.714-1s1.426.411 1.714 1"/></svg>
